src/public/img/statistics/globalData.svg

<svg width="48" height="48" viewBox="0 0 48 48" fill="none" xmlns="http://www.w3.org/2000/svg">
<path fill-rule="evenodd" clip-rule="evenodd" d="M23.1289 9.51189C23.8694 8.84242 24.3838 8.69922 24.5998 8.69922C24.8158 8.69922 25.3302 8.84242 26.0707 9.51189C26.7807 10.1538 27.5624 11.1625 28.2905 12.5472C29.5993 15.0368 30.6689 18.6189 30.8669 23.0986H24.5998H18.3327C18.5307 18.6189 19.6003 15.0368 20.9092 12.5472C21.6372 11.1625 22.4189 10.1538 23.1289 9.51189ZM15.33 23.0986C15.5302 18.1624 16.7055 14.0962 18.2538 11.1512C18.5312 10.6235 18.8228 10.1277 19.1257 9.66681C13.4905 11.7334 9.35043 16.8989 8.77008 23.0986H15.33ZM8.76997 26.0986H15.33C15.53 31.0354 16.7053 35.102 18.2538 38.0472C18.5312 38.5749 18.8228 39.0707 19.1257 39.5316C13.4901 37.4649 9.34991 32.2989 8.76997 26.0986ZM18.3326 26.0986H24.5998H30.867C30.6691 30.5789 29.5994 34.1614 28.2905 36.6512C27.5624 38.0359 26.7807 39.0447 26.0707 39.6865C25.3302 40.356 24.8158 40.4992 24.5998 40.4992C24.3838 40.4992 23.8694 40.356 23.1289 39.6865C22.4189 39.0447 21.6372 38.0359 20.9092 36.6512C19.6002 34.1614 18.5305 30.5789 18.3326 26.0986ZM33.8696 26.0986C33.6696 31.0354 32.4943 35.102 30.9458 38.0472C30.6683 38.5751 30.3767 39.071 30.0737 39.532C35.7098 37.4655 39.8504 32.2993 40.4304 26.0986H33.8696ZM40.4303 23.0986C39.8499 16.8985 35.7094 11.7328 30.0737 9.66643C30.3767 10.1275 30.6683 10.6234 30.9458 11.1512C32.4942 14.0962 33.6694 18.1624 33.8696 23.0986H40.4303ZM24.6002 43.4992H24.5998H24.5962C14.1598 43.497 5.7002 35.0361 5.7002 24.5992C5.7002 14.161 14.162 5.69922 24.6002 5.69922C35.0384 5.69922 43.5002 14.161 43.5002 24.5992C43.5002 35.0374 35.0384 43.4992 24.6002 43.4992Z" fill="url(#paint0_linear_3970_21130)"/>
<defs>
<linearGradient id="paint0_linear_3970_21130" x1="24.6002" y1="5.69922" x2="24.6002" y2="43.4992" gradientUnits="userSpaceOnUse">
<stop stop-color="#F65128"/>
<stop offset="1" stop-color="#F65128" stop-opacity="0.08"/>
</linearGradient>
</defs>
</svg>

<svg xmlns="http://www.w3.org/2000/svg" width="48" height="48" fill="none">
  <path fill="url(#a)" fill-rule="evenodd" d="M23.129 9.512c.74-.67 1.255-.813 1.47-.813.217 0 .731.143 1.472.813.71.642 1.491 1.65 2.22 3.035 1.308 2.49 2.378 6.072 2.576 10.552H18.333c.198-4.48 1.267-8.062 2.576-10.552.728-1.385 1.51-2.393 2.22-3.035ZM15.33 23.099c.2-4.937 1.376-9.003 2.924-11.948a17.7 17.7 0 0 1 .872-1.484C13.49 11.733 9.35 16.899 8.77 23.099h6.56Zm-6.56 3h6.56c.2 4.936 1.375 9.003 2.924 11.948.277.528.569 1.024.872 1.485C13.49 37.465 9.35 32.299 8.77 26.099Zm9.563 0h12.534c-.198 4.48-1.268 8.062-2.576 10.552-.729 1.385-1.51 2.394-2.22 3.035-.74.67-1.255.813-1.471.813-.216 0-.73-.143-1.471-.813-.71-.641-1.492-1.65-2.22-3.035-1.309-2.49-2.378-6.072-2.576-10.552Zm15.537 0c-.2 4.936-1.376 9.003-2.924 11.948a18.1 18.1 0 0 1-.872 1.485c5.636-2.066 9.776-7.233 10.356-13.433h-6.56Zm6.56-3c-.58-6.2-4.72-11.366-10.356-13.433.303.461.594.957.872 1.485 1.548 2.945 2.723 7.011 2.924 11.948h6.56Zm-15.83 20.4h-.004C14.16 43.497 5.7 35.036 5.7 24.6c0-10.438 8.462-18.9 18.9-18.9 10.438 0 18.9 8.462 18.9 18.9 0 10.438-8.462 18.9-18.9 18.9Z" clip-rule="evenodd"/>
  <defs>
    <linearGradient id="a" x1="24.6" x2="24.6" y1="5.699" y2="43.499" gradientUnits="userSpaceOnUse">
      <stop stop-color="#F65128"/>
      <stop offset="1" stop-color="#F65128" stop-opacity=".08"/>
    </linearGradient>
  </defs>
</svg>
